X: 5
T:Manchester Hornpipe
S:ChristopherGeorge Partington" <ChrisTheFiddlerPartington@Hotmail.com> tradtunes 2005-7-12
M:C
Q:180
C:aka.Morning Fair #2, Ricket's
K:GBA|GFGD B,DGB|AGFE DGBd|cBAG FDEF|AGFE DGBA|!
GFGD B,DGB|AGFE DGBd|cBAG FDEF|G2G2G2:|!
|:A2|BcdB GBdg|edcBA2A2|BdcB ADEF|AGFE DGBA|!
GFGD B,DGB|AGFE DGBd|cBAG FDEF|G2G2G2:|]
